X: 138
%
U:~=!turn!
T: Dogs Bite Chapmen
C:
O:Scotland
B:Keith Norman MacDonald : "The Skye collection of the best reels & strathspeys extant" : 1887
Z:Ralph Palmer
R:Reel
M:C|
L:1/8
K:D
g | fAeA BGGg | (fA)eA aAAg | fAeA BGGg | faef {/c}d2d :|
g | fdad {/f}g=cge | fdad bdad | (fd)ad {/f}g=cge | faef {/c}d2 dg |
(fd)ad {/f}g=cge | fdad bdad | bdad {/f}g=cge | faef {/c}d2 d |]


